SVG_Azure_All/Cognitive Services Text Analytics.svg

<?xml version="1.0" encoding="UTF-8" standalone="no"?>
<!DOCTYPE svg PUBLIC "-//W3C//DTD SVG 1.1//EN" "http://www.w3.org/Graphics/SVG/1.1/DTD/svg11.dtd">
<!-- Generated by Microsoft Visio, SVG Export Cognitive Services Text Analytics.svg Page-1 -->
<svg xmlns="http://www.w3.org/2000/svg" xmlns:xlink="http://www.w3.org/1999/xlink" xmlns:ev="http://www.w3.org/2001/xml-events"
		width="1.57437in" height="1.73206in" viewBox="0 0 113.354 124.709" xml:space="preserve" color-interpolation-filters="sRGB"
		class="st8">
	<style type="text/css">
	<![CDATA[
		.st1 {fill:#5ea0ef;stroke:none;stroke-linecap:butt;stroke-width:34}
		.st2 {fill:url(#grad0-8);stroke:none;stroke-linecap:butt;stroke-width:34}
		.st3 {fill:#0078d4;stroke:none;stroke-linecap:butt;stroke-width:34}
		.st4 {fill:#9cebff;stroke:none;stroke-linecap:butt;stroke-width:34}
		.st5 {fill:#9cebff;fill-opacity:0.8;stroke:none;stroke-linecap:butt;stroke-width:34}
		.st6 {fill:#9cebff;fill-opacity:0.6;stroke:none;stroke-linecap:butt;stroke-width:34}
		.st7 {fill:#ffffff;stroke:none;stroke-linecap:butt;stroke-width:34}
		.st8 {fill:none;fill-rule:evenodd;font-size:12px;overflow:visible;stroke-linecap:square;stroke-miterlimit:3}
	]]>
	</style>

	<defs id="Patterns_And_Gradients">
		<linearGradient id="grad0-8" x1="0" y1="0" x2="1" y2="0" gradientTransform="rotate(-90 0.5 0.5)">
			<stop offset="0" stop-color="#0078d4" stop-opacity="1"/>
			<stop offset="0.815" stop-color="#5ea0ef" stop-opacity="1"/>
		</linearGradient>
	</defs>
	<g>
		<title>Page-1</title>
		<g id="group6161-1" transform="translate(34,-34.0157)">
			<title>Cognitive Services Text Analytics</title>
			<g id="group6162-2">
				<title>Sheet.6162</title>
				<g id="shape6163-3" transform="translate(0.33013,-0.422047)">
					<title>Sheet.6163</title>
					<path d="M25.5 68.86 L1.87 68.86 A1.86662 1.90551 -180 0 0 0 70.77 L0 122.8 A1.86662 1.90551 -180 0 0 1.87 124.71
								 L42.83 124.71 A1.86662 1.90551 -180 0 0 44.68 122.8 L44.68 88.37 A1.86662 1.90551 -180 0 0 42.83
								 86.46 L29.23 86.46 A1.86662 1.90551 0 0 1 27.38 84.55 L27.38 70.77 A1.8512 1.88976 -180 0 0 25.5
								 68.86 Z" class="st1"/>
				</g>
				<g id="shape6164-5">
					<title>Sheet.6164</title>
					<path d="M24.97 70.88 L24.97 83.94 A4.70204 4.8 -180 0 0 29.66 88.74 L42.56 88.74 L42.56 121.85 L2.8 121.85 L2.8
								 70.88 L24.97 70.88 ZM25.87 68.02 L1.89 68.02 A1.89439 1.93386 -180 0 0 0 69.95 L0 122.77 A1.89439
								 1.93386 -180 0 0 1.89 124.71 L43.46 124.71 A1.89439 1.93386 -180 0 0 45.35 122.77 L45.35 87.81 A1.89439
								 1.93386 -180 0 0 43.46 85.88 L29.66 85.88 A1.89439 1.93386 0 0 1 27.77 83.94 L27.77 69.95 A1.89439
								 1.93386 -180 0 0 25.87 68.02 Z" class="st2"/>
				</g>
				<g id="shape6165-9" transform="translate(27.1139,-38.4441)">
					<title>Sheet.6165</title>
					<path d="M17.52 124.71 L0 106.88 L0 121.41 A3.21183 3.27874 -180 0 0 3.19 124.71 L17.52 124.71 Z" class="st3"/>
				</g>
				<g id="shape6166-11" transform="translate(6.5193,-24.4882)">
					<title>Sheet.6166</title>
					<path d="M-0 123.63 A1.05212 1.07404 -180 0 0 1.05 124.71 L28.44 124.71 A1.05212 1.07404 -180 0 0 29.49 123.63
								 L29.49 123.6 A1.05212 1.07404 -180 0 0 28.44 122.53 L1.05 122.53 A1.05212 1.07404 -180 0 0 -0 123.6
								 L0 123.63 Z" class="st4"/>
				</g>
				<g id="shape6167-13" transform="translate(6.5193,-18.3496)">
					<title>Sheet.6167</title>
					<path d="M-0 123.63 A1.05212 1.07404 -180 0 0 1.05 124.71 L28.44 124.71 A1.05212 1.07404 -180 0 0 29.49 123.63
								 L29.49 123.6 A1.05212 1.07404 -180 0 0 28.44 122.53 L1.05 122.53 A1.05212 1.07404 -180 0 0 -0 123.6
								 L0 123.63 Z" class="st5"/>
				</g>
				<g id="shape6168-15" transform="translate(6.5193,-12.2079)">
					<title>Sheet.6168</title>
					<path d="M-0 123.63 A1.05212 1.07404 -180 0 0 1.05 124.71 L28.44 124.71 A1.05212 1.07404 -180 0 0 29.49 123.63
								 L29.49 123.6 A1.05212 1.07404 -180 0 0 28.44 122.53 L1.05 122.53 A1.05212 1.07404 -180 0 0 -0 123.6
								 L0 123.63 Z" class="st6"/>
				</g>
				<g id="shape6169-17" transform="translate(18.3577,-8.06929)">
					<title>Sheet.6169</title>
					<path d="M0.93 111.74 a0.925599 0.944882 0 0 1 -0.925599 -0.944882 L0 102.92 a0.925599 0.944882 0 0 1 0.925599
								 -0.944882 L8.64 101.97 a0.933312 0.952756 0 0 1 0 1.90551 L1.87 103.88 L1.87 110.79 a0.925599 0.944882
								 0 0 1 -0.941025 0.948031 ZM22.35 110.79 L22.35 102.92 a0.925599 0.944882 -180 0 0 -0.925599 -0.944882
								 L13.71 101.97 a0.933312 0.952756 -180 0 0 -1.24345E-14 1.90551 L20.48 103.88 L20.48 110.79 a0.934855
								 0.954331 -180 1 0 1.86971 1.42109E-14 L22.35 110.79 ZM22.35 123.76 L22.35 115.88 a0.934855 0.954331
								 -180 1 0 -1.86971 0 L20.48 122.79 L13.72 122.79 a0.925599 0.944882 -180 1 0 -1.24345E-14 1.88976
								 L21.44 124.68 a0.925599 0.944882 -180 0 0 0.922513 -0.929134 L22.35 123.76 ZM9.56 123.76 a0.925599
								 0.944882 -180 0 0 -0.925599 -0.944882 L1.87 122.81 L1.87 115.89 a0.933312 0.952756 -180 1 0 -1.86662
								 0 L0 123.76 a0.925599 0.944882 -180 0 0 0.925599 0.944882 L8.64 124.71 a0.925599 0.944882 -180 0
								 0 0.925599 -0.954331 L9.56 123.76 Z" class="st7"/>
				</g>
			</g>
		</g>
	</g>
</svg>

<?xml version="1.0" encoding="UTF-8" standalone="no"?>
<!-- Generated by Microsoft Visio, SVG Export Cognitive Services Text Analytics.svg Page-1 -->

<svg
   xmlns:dc="http://purl.org/dc/elements/1.1/"
   xmlns:cc="http://creativecommons.org/ns#"
   xmlns:rdf="http://www.w3.org/1999/02/22-rdf-syntax-ns#"
   xmlns:svg="http://www.w3.org/2000/svg"
   xmlns="http://www.w3.org/2000/svg"
   xmlns:sodipodi="http://sodipodi.sourceforge.net/DTD/sodipodi-0.dtd"
   xmlns:inkscape="http://www.inkscape.org/namespaces/inkscape"
   width="0.6298579in"
   height="0.78735691in"
   viewBox="0 0 45.349512 56.690008"
   xml:space="preserve"
   class="st8"
   version="1.1"
   id="svg55"
   sodipodi:docname="Cognitive Services Text Analytics.svg"
   style="font-size:12px;overflow:visible;color-interpolation-filters:sRGB;fill:none;fill-rule:evenodd;stroke-linecap:square;stroke-miterlimit:3"
   inkscape:version="0.92.5 (2060ec1f9f, 2020-04-08)"><metadata
   id="metadata59"><rdf:RDF><cc:Work
       rdf:about=""><dc:format>image/svg+xml</dc:format><dc:type
         rdf:resource="http://purl.org/dc/dcmitype/StillImage" /></cc:Work></rdf:RDF></metadata><sodipodi:namedview
   pagecolor="#ffffff"
   bordercolor="#666666"
   borderopacity="1"
   objecttolerance="10"
   gridtolerance="10"
   guidetolerance="10"
   inkscape:pageopacity="0"
   inkscape:pageshadow="2"
   inkscape:window-width="640"
   inkscape:window-height="480"
   id="namedview57"
   showgrid="false"
   inkscape:zoom="1.4193119"
   inkscape:cx="30.235845"
   inkscape:cy="37.786193"
   inkscape:window-x="0"
   inkscape:window-y="0"
   inkscape:window-maximized="0"
   inkscape:current-layer="svg55" />
	<style
   type="text/css"
   id="style2">
	<![CDATA[
		.st1 {fill:#5ea0ef;stroke:none;stroke-linecap:butt;stroke-width:34}
		.st2 {fill:url(#grad0-8);stroke:none;stroke-linecap:butt;stroke-width:34}
		.st3 {fill:#0078d4;stroke:none;stroke-linecap:butt;stroke-width:34}
		.st4 {fill:#9cebff;stroke:none;stroke-linecap:butt;stroke-width:34}
		.st5 {fill:#9cebff;fill-opacity:0.8;stroke:none;stroke-linecap:butt;stroke-width:34}
		.st6 {fill:#9cebff;fill-opacity:0.6;stroke:none;stroke-linecap:butt;stroke-width:34}
		.st7 {fill:#ffffff;stroke:none;stroke-linecap:butt;stroke-width:34}
		.st8 {fill:none;fill-rule:evenodd;font-size:12px;overflow:visible;stroke-linecap:square;stroke-miterlimit:3}
	]]>
	</style>

	<defs
   id="Patterns_And_Gradients">
		<linearGradient
   id="grad0-8"
   x1="-1.0693571e-05"
   y1="60.837597"
   x2="50.703963"
   y2="60.837597"
   gradientTransform="scale(0.89440759,1.1180585)"
   gradientUnits="userSpaceOnUse">
			<stop
   offset="0"
   stop-color="#0078d4"
   stop-opacity="1"
   id="stop4" />
			<stop
   offset="0.815"
   stop-color="#5ea0ef"
   stop-opacity="1"
   id="stop6" />
		</linearGradient>
	</defs>
	<g
   id="g53"
   transform="translate(-34.000623,-34.004292)">
		<title
   id="title10">Page-1</title>
		<g
   id="group6329-1"
   transform="translate(34,-34.0157)">
			<title
   id="title12">Cognitive Services Text Analytics</title>
			<g
   id="group6330-2">
				<title
   id="title14">Sheet.6330</title>
				<g
   id="shape6331-3"
   transform="translate(0.33013,-0.422047)">
					<title
   id="title16">Sheet.6331</title>
					<path
   d="M 25.5,68.86 H 1.87 A 1.86662,1.90551 -180 0 0 0,70.77 v 52.03 a 1.86662,1.90551 -180 0 0 1.87,1.91 h 40.96 a 1.86662,1.90551 -180 0 0 1.85,-1.91 V 88.37 A 1.86662,1.90551 -180 0 0 42.83,86.46 H 29.23 A 1.86662,1.90551 0 0 1 27.38,84.55 V 70.77 A 1.8512,1.88976 -180 0 0 25.5,68.86 Z"
   class="st1"
   id="path18"
   inkscape:connector-curvature="0"
   style="fill:#5ea0ef;stroke:none;stroke-width:34;stroke-linecap:butt" />
				</g>
				<g
   id="shape6332-5">
					<title
   id="title21">Sheet.6332</title>
					<path
   d="m 24.97,70.88 v 13.06 a 4.70204,4.8 -180 0 0 4.69,4.8 h 12.9 v 33.11 H 2.8 V 70.88 Z m 0.9,-2.86 H 1.89 A 1.89439,1.93386 -180 0 0 0,69.95 v 52.82 a 1.89439,1.93386 -180 0 0 1.89,1.94 h 41.57 a 1.89439,1.93386 -180 0 0 1.89,-1.94 V 87.81 A 1.89439,1.93386 -180 0 0 43.46,85.88 H 29.66 A 1.89439,1.93386 0 0 1 27.77,83.94 V 69.95 a 1.89439,1.93386 -180 0 0 -1.9,-1.93 z"
   class="st2"
   id="path23"
   inkscape:connector-curvature="0"
   style="fill:url(#grad0-8);stroke:none;stroke-width:34;stroke-linecap:butt" />
				</g>
				<g
   id="shape6333-9"
   transform="translate(27.1139,-38.4441)">
					<title
   id="title26">Sheet.6333</title>
					<path
   d="M 17.52,124.71 0,106.88 v 14.53 a 3.21183,3.27874 -180 0 0 3.19,3.3 z"
   class="st3"
   id="path28"
   inkscape:connector-curvature="0"
   style="fill:#0078d4;stroke:none;stroke-width:34;stroke-linecap:butt" />
				</g>
				<g
   id="shape6334-11"
   transform="translate(6.5193,-24.4882)">
					<title
   id="title31">Sheet.6334</title>
					<path
   d="m 0,123.63 a 1.05212,1.07404 -180 0 0 1.05,1.08 h 27.39 a 1.05212,1.07404 -180 0 0 1.05,-1.08 v -0.03 a 1.05212,1.07404 -180 0 0 -1.05,-1.07 H 1.05 A 1.05212,1.07404 -180 0 0 0,123.6 Z"
   class="st4"
   id="path33"
   inkscape:connector-curvature="0"
   style="fill:#9cebff;stroke:none;stroke-width:34;stroke-linecap:butt" />
				</g>
				<g
   id="shape6335-13"
   transform="translate(6.5193,-18.3496)">
					<title
   id="title36">Sheet.6335</title>
					<path
   d="m 0,123.63 a 1.05212,1.07404 -180 0 0 1.05,1.08 h 27.39 a 1.05212,1.07404 -180 0 0 1.05,-1.08 v -0.03 a 1.05212,1.07404 -180 0 0 -1.05,-1.07 H 1.05 A 1.05212,1.07404 -180 0 0 0,123.6 Z"
   class="st5"
   id="path38"
   inkscape:connector-curvature="0"
   style="fill:#9cebff;fill-opacity:0.8;stroke:none;stroke-width:34;stroke-linecap:butt" />
				</g>
				<g
   id="shape6336-15"
   transform="translate(6.5193,-12.2079)">
					<title
   id="title41">Sheet.6336</title>
					<path
   d="m 0,123.63 a 1.05212,1.07404 -180 0 0 1.05,1.08 h 27.39 a 1.05212,1.07404 -180 0 0 1.05,-1.08 v -0.03 a 1.05212,1.07404 -180 0 0 -1.05,-1.07 H 1.05 A 1.05212,1.07404 -180 0 0 0,123.6 Z"
   class="st6"
   id="path43"
   inkscape:connector-curvature="0"
   style="fill:#9cebff;fill-opacity:0.6;stroke:none;stroke-width:34;stroke-linecap:butt" />
				</g>
				<g
   id="shape6337-17"
   transform="translate(18.3577,-8.06929)">
					<title
   id="title46">Sheet.6337</title>
					<path
   d="M 0.93,111.74 A 0.925599,0.944882 0 0 1 0.004401,110.79512 L 0,102.92 a 0.925599,0.944882 0 0 1 0.925599,-0.94488 L 8.64,101.97 a 0.933312,0.952756 0 0 1 0,1.90551 l -6.77,0.004 v 6.91 a 0.925599,0.944882 0 0 1 -0.941025,0.94803 z m 21.42,-0.95 v -7.87 a 0.925599,0.944882 -180 0 0 -0.925599,-0.94488 L 13.71,101.97 a 0.933312,0.952756 -180 0 0 0,1.90551 l 6.77,0.004 v 6.91 a 0.934855,0.954331 -180 1 0 1.86971,0 z m 0,12.97 v -7.88 a 0.934855,0.954331 -180 1 0 -1.86971,0 l -2.9e-4,6.91 h -6.76 a 0.925599,0.944882 -180 1 0 0,1.88976 l 7.72,2.4e-4 a 0.925599,0.944882 -180 0 0 0.922513,-0.92913 z m -12.79,0 A 0.925599,0.944882 -180 0 0 8.634401,122.81512 L 1.87,122.81 v -6.92 a 0.933312,0.952756 -180 1 0 -1.86662,0 L 0,123.76 a 0.925599,0.944882 -180 0 0 0.925599,0.94488 L 8.64,124.71 a 0.925599,0.944882 -180 0 0 0.925599,-0.95433 z"
   class="st7"
   id="path48"
   inkscape:connector-curvature="0"
   style="fill:#ffffff;stroke:none;stroke-width:34;stroke-linecap:butt" />
				</g>
			</g>
		</g>
	</g>
</svg>
